X:1
T:We Gather in Thy Name
T:We Gather in Thy Name
T:Joseph Lincoln Hall
T:Joseph Lincoln Hall, 1904
T:Public Domain Courtesy of the Cyber Hymnal™
C:Joseph Lincoln Hall
Z:Public Domain
Z:Courtesy of the Cyber Hymnal™
%%score ( 1 2 ) ( 3 4 )
L:1/8
Q:1/4=100
M:4/4
K:Ab
V:1 treble 
V:2 treble 
V:3 bass 
V:4 bass 
V:1
 [CE]2 | [Ec]>[Ec] [Ec]>[DB] [CA]2 [CE]2 | [DF]4 [DA]2 [DF]2 | [CE]3 [CE] [CA]2 [Ec]2 | [EB]6 E2 | %5
w: 1.~We|ga- ther in Thy name, O|Mas- ter, We|come with one ac-|cord; O|
w: 2.~We|ga- ther in Thy name, O|Sav- ior, Thy|grace on us be-|stow; Now|
w: 3.~We|ga- ther in Thy name, O|Spir- it, We|come to wor- ship|Thee; For|
 [Ec]>[Ec] [Ec]>[Ed] [Ee]2 [Ec]2 | [FB]4 [DF]2 [DF]2 | [CE]3 [Ec] [Ec]2 [DB]2 | [CA]6 z2 || %9
w: meet with us, we pray, this|mo- ment, Ful-|fill Thy ho- ly|Word.|
w: let us feel Thy gra- cious|Spir- it, And|with Thy love o’er-|flow.|
w: Thou dost save us thro’ Thy|mer- it, To|all e- ter- ni-|ty.|
"^Refrain" [DG]>[DG] [DG]>[CA] [DB]4 | [CA]>[CA] [CA]>[DB] [Ec]4 | %11
w: ||
w: Meet with us, we pray,|Meet with us to- day,|
w: ||
 [EB]>[EB] [EB]>[EB] [=DB]2 [B,D]2 | E6 z2 | [Ec]>[Ec] [Ec]>[Ed] [Ee]4 | %14
w: |||
w: Set our wait- ing hearts a-|flame;|Fill us with Thy love,|
w: |||
 [FA]>[FA] [FA]>[FA] [Fd]4 | [Ec]>[Ec] [Ec]>[Ec] [Ec]2 [DB]2 | [CA]6 |] %17
w: |||
w: Sent from Heav’n a- bove,|As we ga- ther in Thy|name.|
w: |||
V:2
 x2 | x8 | x8 | x8 | x6 E2 | x8 | x8 | x8 | x8 || x8 | x8 | x8 | (B,2 C2 D2) x2 | x8 | x8 | x8 | %16
 x6 |] %17
V:3
 [A,,A,]2 | [A,,A,]>[A,,A,] [A,,A,]>[A,,A,] [A,,A,]2 [A,,A,]2 | [D,A,]4 [D,F,]2 [D,A,]2 | %3
 [A,,A,]3 [A,,A,] [A,,A,]2 [A,,A,]2 | [E,G,]6 [E,G,]2 | A,>A, A,>[A,B,] [A,C]2 [A,E]2 | %6
 [D,D]4 [D,A,]2 [D,A,]2 | [E,A,]3 [E,A,] [E,A,]2 [E,G,]2 | [A,,A,]6 z2 || %9
 [E,B,]>[E,B,] [E,B,]>[E,A,] [E,G,]4 | [A,,A,]>[A,,A,] [A,,A,]>[A,,A,] [A,,A,]4 | %11
 [B,,G,]>[B,,G,] [B,,G,]>[B,,G,] [B,,F,]2 [B,,A,]2 | (G,2 A,2 B,2) z2 | A,>A, A,>[A,B,] [A,C]4 | %14
 [D,D]>[D,D] [D,D]>[D,D] [D,A,]4 | [E,A,]>[E,A,] [E,A,]>[E,A,] [E,G,]2 [E,G,]2 | [A,,A,]6 |] %17
V:4
 x2 | x8 | x8 | x8 | x8 | A,>A, A,3/2 x9/2 | x8 | x8 | x8 || x8 | x8 | x8 | E,6 x2 | %13
 A,>A, A,3/2 x9/2 | x8 | x8 | x6 |] %17

